img/nachos.svg

<svg width="43" height="43" viewBox="0 0 43 43" fill="none" xmlns="http://www.w3.org/2000/svg">
<g clip-path="url(#clip0)">
<path d="M6.61836 8.24663C6.95648 9.52974 7.30162 10.5711 7.33067 10.6579C7.43502 10.9738 7.73005 11.1859 8.0625 11.1859C8.39488 11.1859 8.68986 10.9739 8.79427 10.6581C8.82285 10.5727 9.16826 9.53071 9.50664 8.24663C9.84418 6.96576 10.1781 5.43174 10.1781 4.36719C10.1781 3.20068 9.22901 2.25156 8.0625 2.25156C6.89599 2.25156 5.94687 3.20068 5.94687 4.36719C5.94687 5.43174 6.28082 6.96576 6.61836 8.24663ZM7.49063 4.36719C7.49063 4.05215 7.74692 3.79531 8.0625 3.79531C8.37808 3.79531 8.63438 4.05215 8.63438 4.36719C8.63438 5.22314 8.36068 6.51445 8.0624 7.66725C7.76376 6.51505 7.49063 5.22372 7.49063 4.36719Z" fill="white" stroke="white" stroke-width="0.2"/>
<path d="M7.29062 39.9766C7.29062 40.4033 7.63572 40.7484 8.0625 40.7484C8.48928 40.7484 8.83438 40.4033 8.83438 39.9766V10.4141C8.83438 9.98802 8.48934 9.64219 8.0625 9.64219C7.63566 9.64219 7.29062 9.98802 7.29062 10.4141V39.9766Z" fill="white" stroke="white" stroke-width="0.2"/>
<path d="M41.1574 3.79531L39.6033 7.42174C39.4351 7.81361 39.6162 8.26739 40.0082 8.4351C40.1073 8.4784 40.2109 8.49844 40.3126 8.49844C40.6118 8.49844 40.8968 8.32344 41.022 8.03067L41.1574 3.79531ZM41.1574 3.79531H20.6554L22.2095 7.42241C22.2095 7.42243 22.2095 7.42244 22.2095 7.42246C22.3777 7.81458 22.1956 8.2684 21.8043 8.43593C21.4153 8.60264 20.9585 8.42314 20.7907 8.03061C20.7907 8.0306 20.7907 8.03058 20.7907 8.03056L18.7752 3.32769C18.7752 3.32767 18.7752 3.32764 18.7752 3.32762L18.7751 3.32755L18.8671 3.28816L41.1574 3.79531ZM18.8401 2.59871L18.8401 2.59878L43.0376 3.32755C43.1403 3.08897 43.1155 2.81494 42.9727 2.59878L42.9727 2.59871C42.8293 2.38212 42.5878 2.25156 42.3283 2.25156H19.4845C19.225 2.25156 18.9835 2.38212 18.8401 2.59871ZM41.022 8.03059L43.0376 3.32769L41.022 8.03059Z" fill="white" stroke="white" stroke-width="0.2"/>
<path d="M22.2095 35.5783C22.3778 35.1868 22.1963 34.7331 21.8045 34.5648C21.4157 34.3957 20.9583 34.5765 20.7907 34.97C20.7907 34.9701 20.7907 34.9701 20.7907 34.9702L18.7753 39.6728C18.7752 39.6729 18.7752 39.6729 18.7752 39.6729C18.6724 39.911 18.6973 40.185 18.84 40.4017L18.84 40.4017L18.8402 40.4021L22.1176 35.5388M22.2095 35.5783L22.1176 35.5388M22.2095 35.5783L22.2095 35.5782L22.1176 35.5388M22.2095 35.5783L20.6554 39.2046M22.1176 35.5388L20.5466 39.2046H20.6554M20.6554 39.2046L20.6125 39.3046H20.5037H41.2009L41.1581 39.2046M20.6554 39.2046H41.1581M41.1581 39.2046H41.2669L41.3097 39.3046L39.6959 35.5381M41.1581 39.2046L39.604 35.5776M39.604 35.5776L39.6959 35.5381M39.604 35.5776L39.6039 35.5775L39.6959 35.5381M39.604 35.5776C39.4356 35.1861 39.6179 34.7325 40.0088 34.5642M39.6959 35.5381C39.5494 35.1975 39.708 34.8024 40.0486 34.6559M40.0088 34.5642C40.0087 34.5642 40.0086 34.5643 40.0085 34.5643L40.0486 34.6559M40.0088 34.5642C40.0089 34.5642 40.009 34.5641 40.0091 34.5641L40.0486 34.6559M40.0088 34.5642L40.0486 34.6559M41.0227 34.9693L41.0227 34.9693L40.9308 35.0087L41.0228 34.9695C41.0227 34.9694 41.0227 34.9693 41.0227 34.9693ZM43.0382 39.6723L42.9464 39.7118L43.0383 39.6724L43.0382 39.6723Z" fill="white" stroke="white" stroke-width="0.2"/>
<path d="M20.7281 35.2734C20.7281 35.7002 21.0732 36.0453 21.5 36.0453C21.9268 36.0453 22.2719 35.7002 22.2719 35.2734V7.72656C22.2719 7.30052 21.9268 6.95469 21.5 6.95469C21.0732 6.95469 20.7281 7.30052 20.7281 7.72656V35.2734Z" fill="white" stroke="white" stroke-width="0.2"/>
<path d="M39.5406 35.2734C39.5406 35.7002 39.8857 36.0453 40.3125 36.0453C40.7393 36.0453 41.0844 35.7002 41.0844 35.2734V7.72656C41.0844 7.30052 40.7393 6.95469 40.3125 6.95469C39.8857 6.95469 39.5406 7.30052 39.5406 7.72656V35.2734Z" fill="white" stroke="white" stroke-width="0.2"/>
<path d="M21.5 8.49844H40.3125C40.7393 8.49844 41.0844 8.1526 41.0844 7.72656C41.0844 7.30052 40.7393 6.95469 40.3125 6.95469H21.5C21.0732 6.95469 20.7281 7.30052 20.7281 7.72656C20.7281 8.1526 21.0732 8.49844 21.5 8.49844Z" fill="white" stroke="white" stroke-width="0.2"/>
<path d="M21.5 36.0453H40.3125C40.7393 36.0453 41.0844 35.7002 41.0844 35.2734C41.0844 34.8467 40.7393 34.5016 40.3125 34.5016H21.5C21.0732 34.5016 20.7281 34.8467 20.7281 35.2734C20.7281 35.7002 21.0732 36.0453 21.5 36.0453Z" fill="white" stroke="white" stroke-width="0.2"/>
<path d="M14.7812 11.1859H40.9844C41.4112 11.1859 41.7563 10.8401 41.7563 10.4141C41.7563 9.98802 41.4112 9.64219 40.9844 9.64219H14.7812C14.3544 9.64219 14.0094 9.98802 14.0094 10.4141C14.0094 10.8401 14.3544 11.1859 14.7812 11.1859Z" fill="white" stroke="white" stroke-width="0.2"/>
<path d="M20.8281 13.2016H40.9844C41.4112 13.2016 41.7563 12.8557 41.7563 12.4297C41.7563 12.0036 41.4112 11.6578 40.9844 11.6578H20.8281C20.4013 11.6578 20.0562 12.0036 20.0562 12.4297C20.0562 12.8557 20.4013 13.2016 20.8281 13.2016Z" fill="white" stroke="white" stroke-width="0.2"/>
<path d="M20.8281 15.2172H40.9844C41.4112 15.2172 41.7563 14.8714 41.7563 14.4453C41.7563 14.0193 41.4112 13.6734 40.9844 13.6734H20.8281C20.4013 13.6734 20.0562 14.0193 20.0562 14.4453C20.0562 14.8714 20.4013 15.2172 20.8281 15.2172Z" fill="white" stroke="white" stroke-width="0.2"/>
<path d="M20.8281 17.2328H40.9844C41.4112 17.2328 41.7563 16.887 41.7563 16.4609C41.7563 16.0349 41.4112 15.6891 40.9844 15.6891H20.8281C20.4013 15.6891 20.0562 16.0349 20.0562 16.4609C20.0562 16.887 20.4013 17.2328 20.8281 17.2328Z" fill="white" stroke="white" stroke-width="0.2"/>
<path d="M20.8281 19.2484H40.9844C41.4112 19.2484 41.7563 18.9026 41.7563 18.4766C41.7563 18.0505 41.4112 17.7047 40.9844 17.7047H20.8281C20.4013 17.7047 20.0562 18.0505 20.0562 18.4766C20.0562 18.9026 20.4013 19.2484 20.8281 19.2484Z" fill="white" stroke="white" stroke-width="0.2"/>
<path d="M20.8281 21.2641H40.9844C41.4112 21.2641 41.7563 20.9182 41.7563 20.4922C41.7563 20.0661 41.4112 19.7203 40.9844 19.7203H20.8281C20.4013 19.7203 20.0562 20.0661 20.0562 20.4922C20.0562 20.9182 20.4013 21.2641 20.8281 21.2641Z" fill="white" stroke="white" stroke-width="0.2"/>
<path d="M20.8281 23.2797H40.9844C41.4112 23.2797 41.7563 22.9346 41.7563 22.5078C41.7563 22.0818 41.4112 21.7359 40.9844 21.7359H20.8281C20.4013 21.7359 20.0562 22.0818 20.0562 22.5078C20.0562 22.9346 20.4013 23.2797 20.8281 23.2797Z" fill="white" stroke="white" stroke-width="0.2"/>
<path d="M20.8281 25.2953H40.9844C41.4112 25.2953 41.7563 24.9502 41.7563 24.5234C41.7563 24.0967 41.4112 23.7516 40.9844 23.7516H20.8281C20.4013 23.7516 20.0562 24.0967 20.0562 24.5234C20.0562 24.9502 20.4013 25.2953 20.8281 25.2953Z" fill="white" stroke="white" stroke-width="0.2"/>
<path d="M20.8281 27.3109H40.9844C41.4112 27.3109 41.7563 26.9658 41.7563 26.5391C41.7563 26.1123 41.4112 25.7672 40.9844 25.7672H20.8281C20.4013 25.7672 20.0562 26.1123 20.0562 26.5391C20.0562 26.9658 20.4013 27.3109 20.8281 27.3109Z" fill="white" stroke="white" stroke-width="0.2"/>
<path d="M20.8281 29.3266H40.9844C41.4112 29.3266 41.7563 28.9815 41.7563 28.5547C41.7563 28.1279 41.4112 27.7828 40.9844 27.7828H20.8281C20.4013 27.7828 20.0562 28.1279 20.0562 28.5547C20.0562 28.9815 20.4013 29.3266 20.8281 29.3266Z" fill="white" stroke="white" stroke-width="0.2"/>
<path d="M20.8281 31.3422H40.9844C41.4112 31.3422 41.7563 30.9971 41.7563 30.5703C41.7563 30.1435 41.4112 29.7984 40.9844 29.7984H20.8281C20.4013 29.7984 20.0562 30.1435 20.0562 30.5703C20.0562 30.9971 20.4013 31.3422 20.8281 31.3422Z" fill="white" stroke="white" stroke-width="0.2"/>
<path d="M20.8281 33.3578H40.9844C41.4112 33.3578 41.7563 33.0127 41.7563 32.5859C41.7563 32.1592 41.4112 31.8141 40.9844 31.8141H20.8281C20.4013 31.8141 20.0562 32.1592 20.0562 32.5859C20.0562 33.0127 20.4013 33.3578 20.8281 33.3578Z" fill="white" stroke="white" stroke-width="0.2"/>
<path d="M0.671875 5.81094H14.7812C15.2081 5.81094 15.5531 5.4651 15.5531 5.03906C15.5531 4.61302 15.2081 4.26719 14.7812 4.26719H0.671875C0.245035 4.26719 -0.1 4.61302 -0.1 5.03906C-0.1 5.4651 0.245035 5.81094 0.671875 5.81094Z" fill="white" stroke="white" stroke-width="0.2"/>
<path d="M12.6656 9.07031C12.6656 10.2368 13.6147 11.1859 14.7812 11.1859C15.2081 11.1859 15.5531 10.8401 15.5531 10.4141C15.5531 9.98802 15.2081 9.64219 14.7812 9.64219C14.4657 9.64219 14.2094 9.38535 14.2094 9.07031C14.2094 8.75527 14.4657 8.49844 14.7812 8.49844C15.2081 8.49844 15.5531 8.1526 15.5531 7.72656C15.5531 7.30052 15.2081 6.95469 14.7812 6.95469C13.6147 6.95469 12.6656 7.9038 12.6656 9.07031Z" fill="white" stroke="white" stroke-width="0.2"/>
<path d="M14.0094 7.72656C14.0094 8.1526 14.3544 8.49844 14.7812 8.49844C15.9478 8.49844 16.8969 7.54932 16.8969 6.38281C16.8969 5.2163 15.9478 4.26719 14.7812 4.26719C14.3544 4.26719 14.0094 4.61302 14.0094 5.03906C14.0094 5.4651 14.3544 5.81094 14.7812 5.81094C15.0968 5.81094 15.3531 6.06777 15.3531 6.38281C15.3531 6.69785 15.0968 6.95469 14.7812 6.95469C14.3544 6.95469 14.0094 7.30052 14.0094 7.72656Z" fill="white" stroke="white" stroke-width="0.2"/>
</g>
<defs>
<clipPath id="clip0">
<rect width="43" height="43" fill="white"/>
</clipPath>
</defs>
</svg>

<svg width="43" height="43" fill="none" xmlns="http://www.w3.org/2000/svg"><g clip-path="url(#clip0)" fill="#fff" stroke="#fff" stroke-width=".2"><path d="M6.618 8.247a42.85 42.85 0 00.713 2.41.77.77 0 001.463.001 42.86 42.86 0 00.713-2.411c.337-1.281.671-2.815.671-3.88a2.118 2.118 0 00-2.116-2.115 2.118 2.118 0 00-2.115 2.115c0 1.065.334 2.599.671 3.88zm.873-3.88a.573.573 0 011.143 0c0 .856-.273 2.147-.572 3.3-.298-1.152-.571-2.443-.571-3.3z"/><path d="M7.29 39.977a.771.771 0 101.544 0V10.414a.772.772 0 10-1.543 0v29.563zM41.157 3.795l-1.554 3.627a.771.771 0 101.419.609l.135-4.236zm0 0H20.655l1.554 3.627s0 0 0 0a.772.772 0 11-1.418.609s0 0 0 0l-2.016-4.703s0 0 0 0h0l.092-.04 22.29.507zM18.84 2.6h0l24.198.729a.77.77 0 00-.065-.73h0a.773.773 0 00-.645-.346H19.484c-.259 0-.5.13-.644.347zm22.182 5.43l2.016-4.703-2.016 4.703zM22.21 35.578a.772.772 0 10-1.42-.608s0 0 0 0l-2.015 4.703s0 0 0 0a.77.77 0 00.065.729h0l3.278-4.863m.091.04l-.091-.04m.091.04h0l-.091-.04m.091.04l-1.554 3.626m1.463-3.666l-1.571 3.666h.108m0 0l-.043.1h-.108H41.2l-.043-.1m-20.503 0h20.503m0 0h.109l.043.1-1.614-3.767m1.462 3.667l-1.554-3.627m0 0l.092-.04m-.092.04h0l.092-.04m-.092.04a.772.772 0 01.405-1.014m-.313.974a.672.672 0 01.353-.882m-.04-.092s0 0 0 0l.04.092m-.04-.092s0 0 0 0l.04.092m-.04-.092l.04.092m.974.313h0l-.092.04.092-.04s0 0 0 0zm2.015 4.703l-.092.04.092-.04h0z"/><path d="M20.728 35.273a.771.771 0 101.544 0V7.727a.772.772 0 10-1.544 0v27.546zm18.812 0a.771.771 0 101.544 0V7.727a.772.772 0 10-1.543 0v27.546z"/><path d="M21.5 8.498h18.813a.772.772 0 100-1.543H21.5a.772.772 0 100 1.543zm0 27.547h18.813a.771.771 0 100-1.543H21.5a.771.771 0 100 1.543zm-6.719-24.859h26.203a.772.772 0 100-1.544H14.781a.772.772 0 100 1.544zm6.047 2.016h20.156a.772.772 0 100-1.544H20.828a.772.772 0 100 1.544zm0 2.015h20.156a.772.772 0 100-1.544H20.828a.772.772 0 100 1.544zm0 2.016h20.156a.772.772 0 100-1.544H20.828a.772.772 0 100 1.544zm0 2.015h20.156a.772.772 0 100-1.543H20.828a.772.772 0 100 1.543zm0 2.016h20.156a.772.772 0 100-1.544H20.828a.772.772 0 100 1.544zm0 2.016h20.156a.771.771 0 100-1.544H20.828a.772.772 0 100 1.544zm0 2.015h20.156a.771.771 0 100-1.543H20.828a.771.771 0 100 1.543zm0 2.015h20.156a.771.771 0 100-1.543H20.828a.771.771 0 100 1.544zm0 2.017h20.156a.771.771 0 100-1.544H20.828a.771.771 0 100 1.544zm0 2.015h20.156a.771.771 0 100-1.544H20.828a.771.771 0 100 1.544zm0 2.016h20.156a.771.771 0 100-1.544H20.828a.771.771 0 100 1.544zM.672 5.81h14.11a.772.772 0 100-1.543H.671a.772.772 0 100 1.544z"/><path d="M12.666 9.07c0 1.167.949 2.116 2.115 2.116a.772.772 0 100-1.544.573.573 0 010-1.144.772.772 0 100-1.543 2.118 2.118 0 00-2.115 2.115z"/><path d="M14.01 7.727a.77.77 0 00.771.771 2.118 2.118 0 002.116-2.115c0-1.167-.95-2.116-2.116-2.116a.772.772 0 100 1.544.573.573 0 010 1.144.772.772 0 00-.772.772z"/></g><defs><clipPath id="clip0"><path fill="#fff" d="M0 0h43v43H0z"/></clipPath></defs></svg>
